X:1
T:James Gibb editions
T:Psalm 39 (Becker) - Schütz
%%score [ ( 1 2 ) ( 3 4 ) ]
L:1/8
Q:1/4=100
M:2/2
K:F
V:1 treble nm="Soprano Alto"
V:2 treble 
V:3 bass nm="Tenor Bass"
V:4 bass 
V:1
"^Cornelius Becker\n(1561-1604)""^Psalm 39, SWV 136""^Heinrich Schütz\n(1585-1672)" G4 B2 A2 | %1
w: ~Ich bin ver-|
w: und in mich|
 G2 D2 (GF) _E2 | D4 d4 | B2 c2 d4 | A4 c2 d2 |[M:2/2] B2 A2 G4 | ^F4 :| z2 D2 (E>F G2- | %8
w: stum- met ganz * und|still, nach|Got- tes Will|wollt ich mein|Herz gern len-|ken||
w: fres- sen all * mein|Leid, schwei-|gen der Freud,|doch wenn ich|dran ge- den-|ke,||
 G2) ^F2 G4 | z2 G2 (A>B c2- | c2) =B2 c4 | A4 B2 c2 | d4 z2 d2 | c2 d2 _e4 | z2 d2 c2 f2 | %15
w: |||ich werd ent-|zünd't, mein|Zung tut Sünd,|ach, Gott wie|
w: |||||||
 (d3 c/B/ c2) B2 | A4 G8 |] %17
w: tut * * * michs|krän- ken.|
w: ||
V:2
 D4 D2 D2 | D2 B,2 B,2 C2 | F,4 B,4 | D2 _E2 F4 | F4 F2 F2 |[M:2/2] _ED (D3 C/B,/ C2) | D4 :| %7
w: |||||Herz gern len\- * * *|ken|
w: |||||||
w: |||||dran ge- den\- * * *|ke,|
 z2 A,2 (C2 B,>C | D2) D2 D4 | z2 D2 (F2 E>F | G2) G2 G4 | F4 G2 A2 | F4 z2 F2 | F2 F2 G4 | %14
w: |||||||
w: mein Herz * *|* sich wend't,|im Leib * *|* ent- brennt,||||
w: |||||||
 z2 F2 F2 A2 | G4 G2 (G2- | G^F/E/ F2) G8 |] %17
w: |tut michs krän\-|* * * * ken.|
w: |||
w: |||
V:3
 B,4 G,2 F,2 | B,2 F,2 G,2 A,2 | B,4 F,4 | G,2 G,2 B,4 | C4 A,2 A,2 |[M:2/2] G,2 A,2 (B,2 A,G,) | %6
w: |||||Herz gern len\- * *|
w: |||||dran ge- den- * *|
 A,4 :| z2 F,2 G,4 | A,4 =B,4 | z2 =B,2 C4 | D4 E4 | %11
w: ken|||||
w: ke,|||||
"^3. So lehr mich doch, du treuer Gott, \ndaß mir der Tod das End einmal muß geben, \nmir ist das Ziel gesetzet schon, \nich muß davon und meinen Geist aufgeben. \nMein Tag han kaum ein handbreit Raum, \nall Herrlichkeit ist Eitelkeit, \nwie nichts vor dir mein Leben.\n\n4. Wie gar nichts sind all Menschenkind,\nrasend und blind, in Sicherheit verderbet,\nsie gehn daher ein'm Schemen gleich, \nzu werden reich ein jeder sich bewerbet,\nrennt, läuft, kratzt, scharrt, geizt, sorgt und spart,\nhat doch kein Mut bei großem Gut, \nläßt nach lachende Erben." D4 D2 F2 | %12
w: |
w: |
 D4 z2 B,2 | A,2 B,2 B,4 | %14
w: ||
w: ||
 z2"^5. Nun Herr, wes sol ich trösten mich\nich hoff auf dich, Stell alls zu deiner Gnaden,\nMach mich von meinen Sünden quitt,\nverlaß mich nit, sonst hab ich Spott zum Schaden. \nIch schweig und leid, vertrag und meid, \nund trau auf dich ganz sicherlich, \ndurch dich wird nichts mißraten.\n\n6. Wend ab deiner Hand Straf von mir, \nsonst ich vor dir verschmacht von deinen Plagen. \nWenn du die Sünder suchest heim\nmit Straf und Pein, wird ihre Schön durchnaget. \nGleichwie der Mott des Kleides Tod, \nmacht dein Gericht alles zunicht, \ngar nichts sind Menschen Tage.""^*The bracketed words are missing from the Spitta edition." B,2 A,2 D2 | %15
w: |
w: |
 (B,2 CD _E2) D2 | D4 D8 |] %17
w: ||
w: ||
V:4
 G,,4 G,,2 D,2 | G,,2 B,,2 (_E,D,) C,2 | B,,4 B,,4 | G,,2 C,2 B,,4 | F,4 F,2 D,2 | %5
w: |||||
[M:2/2] G,2 F,2 _E,4 | D,4 :| z2 D,2 (C,>D, _E,2) | D,4 G,,4 | z2 G,2 (F,>G, A,2) | G,4 C,4 | %11
w: ||mein Herz * *|sich wend't,|im Leib * *|ent- brennt,|
 D,4 G,2 F,2 | B,4 z2 B,2 | F,2 B,2 _E,4 | z2 B,,2 F,2 D,2 | (G,4 C,2) G,,2 | D,4 G,,8 |] %17
w: ||||||

